assets/2023/icons/cpp.svg

<svg width="16" height="16" viewBox="0 0 16 16" fill="none" xmlns="http://www.w3.org/2000/svg">
<path d="M12 2.5C12 2.43003 12.0048 2.36117 12.0141 2.29375L8.99228 0.567011C8.37741 0.215659 7.62259 0.215659 7.00772 0.567011L2.00772 3.42415C1.38457 3.78024 1 4.44293 1 5.16064V10.8393C1 11.5571 1.38457 12.2198 2.00772 12.5758L7.00772 15.433C7.62259 15.7843 8.37741 15.7843 8.99228 15.433L12.0141 13.7062C12.0048 13.6388 12 13.57 12 13.5V13H11.5C10.6716 13 10 12.3284 10 11.5C10 10.6716 10.6716 10 11.5 10H12V6H11.5C10.6716 6 10 5.32843 10 4.5C10 3.67157 10.6716 3 11.5 3H12V2.5Z" fill="#EEE0FF"/>
<path d="M14 2.5C14 2.22386 13.7761 2 13.5 2C13.2239 2 13 2.22386 13 2.5V4H11.5C11.2239 4 11 4.22386 11 4.5C11 4.77614 11.2239 5 11.5 5H13V6.5C13 6.77614 13.2239 7 13.5 7C13.7761 7 14 6.77614 14 6.5V5H15.5C15.7761 5 16 4.77614 16 4.5C16 4.22386 15.7761 4 15.5 4H14V2.5Z" fill="#955AE0"/>
<path d="M14 9.5C14 9.22386 13.7761 9 13.5 9C13.2239 9 13 9.22386 13 9.5V11H11.5C11.2239 11 11 11.2239 11 11.5C11 11.7761 11.2239 12 11.5 12H13V13.5C13 13.7761 13.2239 14 13.5 14C13.7761 14 14 13.7761 14 13.5V12H15.5C15.7761 12 16 11.7761 16 11.5C16 11.2239 15.7761 11 15.5 11H14V9.5Z" fill="#955AE0"/>
<path d="M1 5.16064C1 4.44293 1.38457 3.78024 2.00772 3.42415L7.00772 0.567011C7.62259 0.215659 8.37741 0.215659 8.99228 0.567011L12.0141 2.29375C12.0048 2.36117 12 2.43003 12 2.5V3H11.5C11.4205 3 11.3424 3.00619 11.2662 3.01812L8.49614 1.43525C8.18871 1.25958 7.81129 1.25958 7.50386 1.43525L2.50386 4.2924C2.19229 4.47044 2 4.80178 2 5.16064V10.8393C2 11.1982 2.19229 11.5295 2.50386 11.7076L7.50386 14.5647C7.81129 14.7404 8.18871 14.7404 8.49614 14.5647L11.2661 12.9819C11.3423 12.9938 11.4204 13 11.5 13H12V13.5C12 13.57 12.0048 13.6388 12.0141 13.7062L8.99228 15.433C8.37741 15.7843 7.62259 15.7843 7.00772 15.433L2.00772 12.5758C1.38457 12.2198 1 11.5571 1 10.8393V5.16064Z" fill="#955AE0"/>
<path d="M8.13241 11.5C9.62136 11.5 10.8976 10.6008 11.2118 9.32459H10.1966C9.88241 10.0546 9.1041 10.5767 8.13241 10.5767C6.79332 10.5767 5.82647 9.50345 5.82647 8C5.82647 6.49655 6.79332 5.42334 8.13241 5.42334C9.1041 5.42334 9.88241 5.94544 10.1966 6.67541H11.2118C10.8976 5.39917 9.62136 4.5 8.13241 4.5C6.21321 4.5 4.78711 5.99378 4.78711 8C4.78711 10.0062 6.21321 11.5 8.13241 11.5Z" fill="#955AE0"/>
</svg>

<svg xmlns="http://www.w3.org/2000/svg" width="16" height="16" fill="none" viewBox="0 0 16 16"><path fill="#EEE0FF" d="M12 2.5q0-.105.014-.206L8.992.567a2 2 0 0 0-1.984 0l-5 2.857A2 2 0 0 0 1 5.161v5.678a2 2 0 0 0 1.008 1.737l5 2.857a2 2 0 0 0 1.984 0l3.022-1.727A2 2 0 0 1 12 13.5V13h-.5a1.5 1.5 0 0 1 0-3h.5V6h-.5a1.5 1.5 0 0 1 0-3h.5z"/><path fill="#955AE0" d="M14 2.5a.5.5 0 0 0-1 0V4h-1.5a.5.5 0 0 0 0 1H13v1.5a.5.5 0 0 0 1 0V5h1.5a.5.5 0 0 0 0-1H14zm0 7a.5.5 0 0 0-1 0V11h-1.5a.5.5 0 0 0 0 1H13v1.5a.5.5 0 0 0 1 0V12h1.5a.5.5 0 0 0 0-1H14z"/><path fill="#955AE0" d="M1 5.16a2 2 0 0 1 1.008-1.736l5-2.857a2 2 0 0 1 1.984 0l3.022 1.727Q12 2.394 12 2.5V3h-.5q-.12 0-.234.018l-2.77-1.583a1 1 0 0 0-.992 0l-5 2.857A1 1 0 0 0 2 5.161v5.678a1 1 0 0 0 .504.869l5 2.857a1 1 0 0 0 .992 0l2.77-1.583q.114.018.234.018h.5v.5q0 .105.014.206l-3.022 1.727a2 2 0 0 1-1.984 0l-5-2.857A2 2 0 0 1 1 10.839z"/><path fill="#955AE0" d="M8.132 11.5c1.49 0 2.766-.9 3.08-2.175h-1.015c-.315.73-1.093 1.252-2.065 1.252-1.339 0-2.306-1.074-2.306-2.577s.967-2.577 2.306-2.577c.972 0 1.75.522 2.065 1.252h1.015C10.898 5.4 9.622 4.5 8.132 4.5 6.213 4.5 4.787 5.994 4.787 8s1.426 3.5 3.345 3.5"/></svg>
